X: 06003
T: AUGUSTA WALTZ
C: Bob McQuillen 13 July 82
B: Bob's Note Book 6 #3
%R: waltz
Z: 2021 John Chambers <jc:trillian.mit.edu>
M: 3/4
L: 1/4
P: Play: AABAAB....A
K: G	% and Em
D \
| G2B | A>Bd | b>ag | e>fg | d>ed | BGB | c>Bc | AFD |
| G2B | A>Bd | b>ag | efg | dBc | B2A | G3- | G2 |]
K: Em
[| B, \
| E2G | F>GA | B>AB | GFE | EG>E | ABc | B3 | B,2B, |
| E2G | FGA | B>AB | GFE | GB>G | AB^c | d3- | d2 |]
%%begintext align
%% Perhaps the greatest
%% musical experience of my life happened to me this summer
%% when I attended Irish Music Week at Elkins. It was
%% truly an unbelievable experience. Five days of great
%% music with superb instructors Liz Carroll, Mick
%% Moloney, and Billy McComiskey. The very best.
%%endtext

%%sep 1 1 500

%%sep 1 1 500

